X:016
T:Ville De Quebec
M:3/4
K:G
GA | B2 G2 E2 | D4 GA | BAGABc | d4 gf |
e3 gfe | d2 B2 d2 | ed c2 B2 | A4 GA |
B2 G2 E2 | D4 GA | BAGABc | d4 gf |
e3 gfe | d2 B2 d2 | c2 B2 A2 | G4 ||
GA | B2 G2 e2 | d4 GA | BA G2 c2 | B4 gf |
e3 gfe | d2 B2 d2 | ed c2 B2 | A4 GA |
B2 G2 E2 | D4 GA | BAGABc | d4 gf |
e3 gfe | d2 B2 d2 | c2 B2 A2 | G4 ||
